Papirus/64x64/apps/smc.svg

<svg width="64" height="64" version="1.1" xmlns="http://www.w3.org/2000/svg">
 <path d="M 32 5 C 32 5 25.954348 5.1100134 20.988281 7.6464844 C 13.416536 11.513836 4 21.8 4 33 C 4 42.8 7.9397642 47.493153 13.800781 49.800781 C 14.251934 49.958685 14.721202 50.098072 15.203125 50.226562 C 16.616783 60.99214 25.321615 61 32 61 C 38.678385 61 47.383217 60.99214 48.796875 50.226562 C 49.278798 50.098072 49.748066 49.958685 50.199219 49.800781 C 56.060236 47.493154 60 42.8 60 33 C 60 21.8 50.583464 11.513836 43.011719 7.6464844 C 38.045652 5.1100106 32 5 32 5 z " style="opacity:.2"/>
 <path d="m32 4s-6.045652 0.1100134-11.011719 2.6464844c-4.088317 2.0881527-8.70237 6.0573296-12.09375 11.021485l-4.7539062 11.976562c-0.0294165 0.255119-0.0521905 0.511137-0.0722656 0.767578l1.9238281 11.529297v0.003906c1.7161683 3.41256 4.4434755 5.530539 7.8085935 6.855469 7 2.45 18.199219 1.199219 18.199219 1.199219s11.199219 1.250781 18.199219-1.199219c3.365118-1.32493 6.092425-3.442909 7.808593-6.855469 5.22e-4 -0.001037-5.21e-4 -0.002868 0-0.003906l1.923829-11.529297c-0.020076-0.256441-0.042849-0.512459-0.072266-0.767578l-4.753906-11.976562c-3.39138-4.964155-8.005433-8.9333319-12.09375-11.021485-4.966067-2.5364738-11.011719-2.6464844-11.011719-2.6464844z" style="fill:#26a1db"/>
 <path d="m49 46c0 14-9.710434 14-17 14s-17 0-17-14c0 0 3-5.6 17-5.6s17 5.6 17 5.6z" style="fill:#e4e4e4"/>
 <ellipse cx="32" cy="22" rx="17" ry="14" style="opacity:.2"/>
 <ellipse cx="32" cy="21" rx="17" ry="14" style="fill:#ffffff"/>
 <path d="m8.8945312 17.667969c-2.889607 4.229681-4.8945312 9.179402-4.8945312 14.332031 0 4.173304 0.7193104 7.414227 1.9921875 9.945312-0.022963-0.162053-0.9832601-6.995301-0.2363281-11.177734 0.9866661-5.52482 1.6233588-7.794029 3.1386718-13.099609zm46.210938 0c1.515313 5.30558 2.152006 7.574789 3.138672 13.099609 0.746931 4.182433-0.213366 11.015681-0.236329 11.177734 1.272878-2.531085 1.992188-5.772008 1.992188-9.945312 0-5.152629-2.004924-10.10235-4.894531-14.332031z" style="fill:#e4e4e4"/>
 <path d="m25.5 44c-1.385 0-2.5 1.115-2.5 2.5v5c0 1.385 1.115 2.5 2.5 2.5s2.5-1.115 2.5-2.5v-5c0-1.385-1.115-2.5-2.5-2.5zm13 0c-1.385 0-2.5 1.115-2.5 2.5v5c0 1.385 1.115 2.5 2.5 2.5s2.5-1.115 2.5-2.5v-5c0-1.385-1.115-2.5-2.5-2.5z" style="opacity:.1"/>
 <path d="m25.5 43c-1.385 0-2.5 1.115-2.5 2.5v5c0 1.385 1.115 2.5 2.5 2.5s2.5-1.115 2.5-2.5v-5c0-1.385-1.115-2.5-2.5-2.5zm13 0c-1.385 0-2.5 1.115-2.5 2.5v5c0 1.385 1.115 2.5 2.5 2.5s2.5-1.115 2.5-2.5v-5c0-1.385-1.115-2.5-2.5-2.5z" style="fill:#3f3f3f"/>
 <path d="M 32 4 C 32 4 25.954348 4.1100134 20.988281 6.6464844 C 13.416536 10.513836 4 20.8 4 32 C 4 32.175007 4.011171 32.336047 4.0136719 32.507812 C 4.2839326 21.500013 13.527786 11.457014 20.988281 7.6464844 C 25.954348 5.1100134 32 5 32 5 C 32 5 38.045652 5.1100106 43.011719 7.6464844 C 50.472214 11.457014 59.716067 21.500013 59.986328 32.507812 C 59.988829 32.336047 60 32.175007 60 32 C 60 20.8 50.583464 10.513836 43.011719 6.6464844 C 38.045652 4.1100106 32 4 32 4 z " style="fill:#ffffff;opacity:.2"/>
 <path d="m32 40.400391c-14 0-17 5.599609-17 5.599609 0 0.333338 0.010638 0.651096 0.021484 0.96875 0.099726-0.179127 3.210018-5.568359 16.978516-5.568359s16.87879 5.389232 16.978516 5.568359c0.010846-0.317654 0.021484-0.635412 0.021484-0.96875 0 0-3-5.599609-17-5.599609z" style="opacity:.1"/>
</svg>

<?xml version="1.0" encoding="UTF-8" standalone="no"?>
<svg
   id="_图层_1"
   version="1.1"
   viewBox="0 0 64 64" width="64" height="64"
   sodipodi:docname="smc.svg"
   xml:space="preserve"
   inkscape:version="1.4 (e7c3feb100, 2024-10-09)"
   xmlns:inkscape="http://www.inkscape.org/namespaces/inkscape"
   xmlns:sodipodi="http://sodipodi.sourceforge.net/DTD/sodipodi-0.dtd"
   xmlns:xlink="http://www.w3.org/1999/xlink"
   xmlns="http://www.w3.org/2000/svg"
   xmlns:svg="http://www.w3.org/2000/svg"><sodipodi:namedview
     id="namedview26"
     pagecolor="#505050"
     bordercolor="#eeeeee"
     borderopacity="1"
     inkscape:showpageshadow="0"
     inkscape:pageopacity="0"
     inkscape:pagecheckerboard="0"
     inkscape:deskcolor="#505050"
     inkscape:zoom="10.6875"
     inkscape:cx="32"
     inkscape:cy="32"
     inkscape:window-width="1920"
     inkscape:window-height="939"
     inkscape:window-x="0"
     inkscape:window-y="34"
     inkscape:window-maximized="1"
     inkscape:current-layer="_图层_1" /><!-- Generator: Adobe Illustrator 29.0.1, SVG Export Plug-In . SVG Version: 2.1.0 Build 192)  --><defs
     id="defs6"><style
       id="style1">
      .st0 {
        fill-opacity: .5;
      }

      .st0, .st1, .st2, .st3, .st4, .st5, .st6, .st7 {
        fill: #fff;
      }

      .st8 {
        fill: #133c9a;
      }

      .st2, .st9 {
        display: none;
      }

      .st3 {
        fill-opacity: .2;
      }

      .st4 {
        fill-opacity: .9;
      }

      .st10 {
        fill: #3370ff;
      }

      .st11 {
        fill: url(#_未命名的渐变_3);
      }

      .st12 {
        fill: url(#_未命名的渐变);
      }

      .st5 {
        fill-opacity: .3;
      }

      .st6 {
        fill-opacity: 0;
      }

      .st7 {
        fill-opacity: .7;
      }

      .st13 {
        fill: #00d6b9;
      }

      .st14 {
        fill: url(#_未命名的渐变_2);
      }
    </style><radialGradient
       id="_未命名的渐变"
       data-name="未命名的渐变"
       cx="123.9"
       cy="-40.2"
       fx="123.9"
       fy="-40.2"
       r="59.4"
       gradientTransform="translate(-26.8 25.5) scale(.6 -.7)"
       gradientUnits="userSpaceOnUse"><stop
         offset="0"
         stop-color="#db202e"
         id="stop1" /><stop
         offset="1"
         stop-color="#e01b24"
         id="stop2" /></radialGradient><radialGradient
       id="_未命名的渐变_2"
       data-name="未命名的渐变 2"
       cx="67.6"
       cy="26.8"
       fx="67.6"
       fy="26.8"
       r="105.2"
       gradientTransform="translate(-26.6 25.3) scale(.6 -.7)"
       gradientUnits="userSpaceOnUse"><stop
         offset="0"
         stop-color="#ffb648"
         id="stop3" /><stop
         offset="1"
         stop-color="#ff7800"
         stop-opacity="0"
         id="stop4" /></radialGradient><radialGradient
       id="_未命名的渐变_3"
       data-name="未命名的渐变 3"
       cx="61.7"
       cy="18.6"
       fx="61.7"
       fy="18.6"
       r="68"
       gradientTransform="translate(-26.8 25.8) scale(.6 -.7)"
       gradientUnits="userSpaceOnUse"><stop
         offset="0"
         stop-color="#c64600"
         id="stop5" /><stop
         offset="1"
         stop-color="#a51d2d"
         id="stop6" /></radialGradient><linearGradient
       id="linearGradient1261"><stop
         style="stop-color:#4f4f4f"
         offset="0"
         id="stop1-7" /><stop
         style="stop-color:#3f3f3f"
         offset="1"
         id="stop2-0" /></linearGradient><linearGradient
       id="linearGradient1263"
       x1="34.241"
       x2="37.169"
       y1="38.945"
       y2="30.342"
       gradientTransform="matrix(1.3919157,0,0,1.3888889,-1.321022,-0.4865665)"
       gradientUnits="userSpaceOnUse"
       xlink:href="#linearGradient1261" /></defs><path
     class="st1"
     d="M47.5,64.1H13.8c-7.6,0-13.8-6.3-13.8-13.8V13.7C0,6.2,6.2,0,13.7,0h36.6c7.5,0,13.7,6.2,13.7,13.7v36.6c0,7.5-6.2,13.7-13.7,13.7h-2.9.1Z"
     id="path6"
     style="fill:#ffffff;fill-opacity:1" /><g
     id="g26"
     transform="matrix(0.83291562,0,0,0.82763927,5.3467004,5.8970449)"><path
       d="M 32,5 C 32,5 25.954348,5.1100134 20.988281,7.6464844 13.416536,11.513836 4,21.8 4,33 c 0,9.8 3.9397642,14.493153 9.800781,16.800781 0.451153,0.157904 0.920421,0.297291 1.402344,0.425781 C 16.616783,60.99214 25.321615,61 32,61 c 6.678385,0 15.383217,-0.0079 16.796875,-10.773438 0.481923,-0.12849 0.951191,-0.267877 1.402344,-0.425781 C 56.060236,47.493154 60,42.8 60,33 60,21.8 50.583464,11.513836 43.011719,7.6464844 38.045652,5.1100106 32,5 32,5 Z"
       style="opacity:0.2"
       id="path1" /><path
       d="M 32,4 C 32,4 25.954348,4.1100134 20.988281,6.6464844 16.899964,8.7346371 12.285911,12.703814 8.894531,17.667969 L 4.1406248,29.644531 c -0.029416,0.255119 -0.052191,0.511137 -0.072266,0.767578 l 1.9238281,11.529297 v 0.0039 c 1.7161683,3.41256 4.4434761,5.530539 7.8085941,6.855469 C 20.800781,51.250781 32,50 32,50 c 0,0 11.199219,1.250781 18.199219,-1.199219 3.365118,-1.32493 6.092425,-3.442909 7.808593,-6.855469 5.22e-4,-0.001 -5.21e-4,-0.0029 0,-0.0039 l 1.923829,-11.529297 c -0.02008,-0.256441 -0.04285,-0.512459 -0.07227,-0.767578 L 55.105469,17.667969 C 51.714089,12.703814 47.100036,8.7346375 43.011719,6.6464844 38.045652,4.1100106 32,4 32,4 Z"
       style="fill:#26a1db"
       id="path2" /><path
       d="m 49,46 c 0,14 -9.710434,14 -17,14 -7.289566,0 -17,0 -17,-14 0,0 3,-5.6 17,-5.6 14,0 17,5.6 17,5.6 z"
       style="fill:#e4e4e4"
       id="path3" /><ellipse
       cx="32"
       cy="22"
       rx="17"
       ry="14"
       style="opacity:0.2"
       id="ellipse3" /><ellipse
       cx="32"
       cy="21"
       rx="17"
       ry="14"
       style="fill:#ffffff"
       id="ellipse4" /><path
       d="M 8.8945312,17.667969 C 6.0049242,21.89765 4,26.847371 4,32 4,36.173304 4.7193104,39.414227 5.9921875,41.945312 5.9692245,41.783259 5.0089274,34.950011 5.7558594,30.767578 6.7425255,25.242758 7.3792182,22.973549 8.8945312,17.667969 Z m 46.2109378,0 c 1.515313,5.30558 2.152006,7.574789 3.138672,13.099609 0.746931,4.182433 -0.213366,11.015681 -0.236329,11.177734 C 59.28069,39.414227 60,36.173304 60,32 60,26.847371 57.995076,21.89765 55.105469,17.667969 Z"
       style="fill:#e4e4e4"
       id="path4" /><path
       d="M 25.5,44 C 24.115,44 23,45.115 23,46.5 v 5 c 0,1.385 1.115,2.5 2.5,2.5 1.385,0 2.5,-1.115 2.5,-2.5 v -5 C 28,45.115 26.885,44 25.5,44 Z m 13,0 C 37.115,44 36,45.115 36,46.5 v 5 c 0,1.385 1.115,2.5 2.5,2.5 1.385,0 2.5,-1.115 2.5,-2.5 v -5 C 41,45.115 39.885,44 38.5,44 Z"
       style="opacity:0.1"
       id="path5" /><path
       d="M 25.5,43 C 24.115,43 23,44.115 23,45.5 v 5 c 0,1.385 1.115,2.5 2.5,2.5 1.385,0 2.5,-1.115 2.5,-2.5 v -5 C 28,44.115 26.885,43 25.5,43 Z m 13,0 C 37.115,43 36,44.115 36,45.5 v 5 c 0,1.385 1.115,2.5 2.5,2.5 1.385,0 2.5,-1.115 2.5,-2.5 v -5 C 41,44.115 39.885,43 38.5,43 Z"
       style="fill:#3f3f3f"
       id="path6-7" /><path
       d="M 32,4 C 32,4 25.954348,4.1100134 20.988281,6.6464844 13.416536,10.513836 4,20.8 4,32 4,32.175007 4.011171,32.336047 4.0136719,32.507812 4.2839326,21.500013 13.527786,11.457014 20.988281,7.6464844 25.954348,5.1100134 32,5 32,5 32,5 38.045652,5.1100106 43.011719,7.6464844 50.472214,11.457014 59.716067,21.500013 59.986328,32.507812 59.988829,32.336047 60,32.175007 60,32 60,20.8 50.583464,10.513836 43.011719,6.6464844 38.045652,4.1100106 32,4 32,4 Z"
       style="opacity:0.2;fill:#ffffff"
       id="path7" /><path
       d="M 32,40.400391 C 18,40.400391 15,46 15,46 c 0,0.333338 0.01064,0.651096 0.02148,0.96875 0.09973,-0.179127 3.210022,-5.568359 16.97852,-5.568359 13.768498,0 16.87879,5.389232 16.978516,5.568359 C 48.989362,46.651096 49,46.333338 49,46 49,46 46,40.400391 32,40.400391 Z"
       style="opacity:0.1"
       id="path8" /></g></svg>
